suite-common/icons/assets/icons/infoLight.svg

<svg xmlns="http://www.w3.org/2000/svg" fill="none" viewBox="0 0 40 41">
  <path fill="#000" fill-rule="evenodd" d="M18.933 4.802a15.7 15.7 0 0 0-5.9 1.598c-5.335 2.617-8.766 8.136-8.766 14.1 0 3.529 1.237 7.052 3.454 9.833 2.504 3.141 6.176 5.21 10.246 5.772.507.07 1.252.11 2.033.11 2.498 0 4.708-.513 6.967-1.617 5.327-2.604 8.766-8.134 8.766-14.098 0-1.678-.262-3.277-.813-4.954A15.68 15.68 0 0 0 26.967 6.4c-1.001-.49-2.559-1.046-3.534-1.26a17.2 17.2 0 0 0-4.5-.338M22.5 6.457c1.53.291 2.635.667 3.98 1.353 4.098 2.089 6.921 6.009 7.63 10.596.162 1.046.162 3.142 0 4.188a14.5 14.5 0 0 1-1.48 4.521c-1.834 3.496-5.152 6.155-8.925 7.151-1.445.381-1.86.43-3.705.43-1.852 0-2.258-.048-3.732-.437-.98-.259-1.734-.552-2.731-1.06C9.42 31.1 6.601 27.19 5.89 22.594c-.162-1.046-.162-3.142 0-4.188.711-4.598 3.528-8.505 7.647-10.605 1.587-.809 2.882-1.199 4.963-1.494.11-.015.89-.019 1.733-.009 1.22.015 1.684.047 2.267.159m-3.012 4.145c-.376.076-.606.203-.914.508-.367.364-.532.763-.532 1.29 0 1.185 1.043 2.015 2.226 1.771a1.817 1.817 0 0 0 1.445-1.95c-.111-1.078-1.15-1.834-2.225-1.619m-1.14 8.035c-.165.116-.348.431-.348.6 0 .226.216.555.432.658.122.058.359.105.527.105h.305l.018 4.165.018 4.165.185.185c.18.18.207.186 1.043.207 1.002.025 1.218-.043 1.384-.44.082-.197.087-.291.024-.499-.102-.342-.39-.516-.853-.516h-.35v-8.28l-.226-.227-.227-.227h-.892c-.7 0-.924.023-1.04.104"/>
</svg>

<svg xmlns="http://www.w3.org/2000/svg" fill="none" viewBox="0 0 40 41"><path d="M18.933 4.802 C 16.895 4.940,14.920 5.475,13.033 6.400 C 7.698 9.017,4.267 14.536,4.267 20.500 C 4.267 24.029,5.504 27.552,7.721 30.333 C 10.225 33.474,13.897 35.543,17.967 36.105 C 18.474 36.175,19.219 36.215,20.000 36.215 C 22.498 36.215,24.708 35.702,26.967 34.598 C 32.294 31.994,35.733 26.464,35.733 20.500 C 35.733 18.822,35.471 17.223,34.920 15.546 C 33.613 11.567,30.722 8.242,26.967 6.400 C 25.966 5.910,24.408 5.354,23.433 5.140 C 22.056 4.838,20.327 4.708,18.933 4.802 M22.500 6.457 C 24.030 6.748,25.135 7.124,26.480 7.810 C 30.578 9.899,33.401 13.819,34.110 18.406 C 34.272 19.452,34.272 21.548,34.110 22.594 C 33.863 24.188,33.363 25.717,32.630 27.115 C 30.796 30.611,27.478 33.270,23.705 34.266 C 22.260 34.647,21.845 34.696,20.000 34.696 C 18.148 34.696,17.742 34.648,16.268 34.259 C 15.288 34.000,14.534 33.707,13.537 33.199 C 9.420 31.100,6.601 27.190,5.890 22.594 C 5.728 21.548,5.728 19.452,5.890 18.406 C 6.601 13.808,9.418 9.901,13.537 7.801 C 15.124 6.992,16.419 6.602,18.500 6.307 C 18.610 6.292,19.390 6.288,20.233 6.298 C 21.453 6.313,21.917 6.345,22.500 6.457 M19.488 10.602 C 19.112 10.678,18.882 10.805,18.574 11.110 C 18.207 11.474,18.042 11.873,18.042 12.400 C 18.042 13.585,19.085 14.415,20.268 14.171 C 21.178 13.984,21.806 13.136,21.713 12.221 C 21.602 11.143,20.563 10.387,19.488 10.602 M18.348 18.637 C 18.183 18.753,18.000 19.068,18.000 19.237 C 18.000 19.463,18.216 19.792,18.432 19.895 C 18.554 19.953,18.791 20.000,18.959 20.000 L 19.264 20.000 19.282 24.165 L 19.300 28.330 19.485 28.515 C 19.665 28.695,19.692 28.701,20.528 28.722 C 21.530 28.747,21.746 28.679,21.912 28.282 C 21.994 28.085,21.999 27.991,21.936 27.783 C 21.834 27.441,21.546 27.267,21.083 27.267 L 20.733 27.267 20.733 23.127 L 20.733 18.987 20.507 18.760 L 20.280 18.533 19.388 18.533 C 18.688 18.533,18.464 18.556,18.348 18.637 " stroke="none" fill-rule="evenodd" fill="black"></path></svg>
